X: 10834
T: OH LOVE! HOW JUST AND HOW SEVERE THY MIGHTY GODHEAD IS.
C: Francis Forcer.--Playford's Collection, 1684
Q: "Not too slow."
%R: air, march
B: W. Hamilton "Universal Tune-Book" Vol. 1 Glasgow 1844 p.83 #4
S: http://imslp.org/wiki/Hamilton's_Universal_Tune-Book_(Various)
Z: 2016 John Chambers <jc:trillian.mit.edu>
M: C
L: 1/8
K: Bb	% and Gm
%%slurgraces yes
%%graceslurs yes
% - - - - - - - - - - - - - - - - - - - - - - - - -
d2 |\
e3d c2(BA) | B3c ^F3B | A3B (cB)c2 | f6 e2 |\
d2d2 (ed)(cB) | (AB)c2 c3e | (de)(cB) B3A | B6 :|
B2 |\
A2(GF) c3A | (GA)(BG) d4 | e2(de) c3B | A6 f2 |\
(fe2)e (ed2)d | (gf)(ed) c3e | (fd)(cA) B3c | d6 |]
D2 |\
D3D E4 | =E2E>E F4 | ^F2(F>G) G2(BA) | {G}^F6 e2 |\
d3e (fd)(gf) | e3d c3e | d2(cB) B3A | HG6 |]
% - - - - - - - - - - - - - - - - - - - - - - - - -

%%sep 1 1 500
%%sep 1 1 500

